Adwaita++/actions/symbolic/edit-tag-symbolic.svg

<svg height="16" width="16" xmlns="http://www.w3.org/2000/svg">
  <path d="m4 1s-2 0-2 2v4.5l7.75 7.25 6-6-7.25-7.75zm1 2c.55 0 1 .45 1 1s-.45 1-1 1-1-.45-1-1 .45-1 1-1z" fill="#474747"/>
</svg>

<svg xmlns="http://www.w3.org/2000/svg" width="16" height="16" version="1.1">
 <path style="fill:#474747" d="M 4,1 C 4,1 2,1 2,3 V 7.5 L 9.75,14.75 15.75,8.75 8.5,1 Z M 5,3 C 5.55,3 6,3.45 6,4 6,4.55 5.55,5 5,5 4.45,5 4,4.55 4,4 4,3.45 4.45,3 5,3 Z"/>
</svg>
